X: 22127
T: Kruger's, The
R: jig
M: 6/8
K: Ddorian
E|:FDD ADD|d^cd AFD|ECA, G,CE|GAB cGE|
FDD ADD|d^cd AFD|B/c/dB cAG|1 EDC D2E:|2 EDC D2 A,||
|:DFA de^f|ged c2 A|GEE cEE|GAB cGE|
DFA de^f|ged cde|^fed cAG|1 EDC D2 A,:|2 EDC D2 E||

